X: 4102
T: The FORGE
R: Strathspey.
%R: strathspey
B: James Kerr "Merry Melodies" v.4 p.13 #102
Z: 2016 John Chambers <jc:trillian.mit.edu>
M: C
L: 1/16
K: Em
|:\
BB3 B3A G3FE3G | F3DA3D F3DA3d |\
BB3 B3A G3FE3G | B3e gfe^d e4- e2g2 :|
|:\
gg3 b3g a3fd3f | ee3 g3e f3^dB3f |\
gg3 b3g a3fd3f | B3e gfe^d e4- e2g2 :|

%%sep 1 1 500
%%sep 1 1 500

